X: 24458
T: Lucky Dozen
R: mazurka
M: 3/4
K: Dmajor
f fe|:d2 dA Bd|A4 ef|g2 gb af|e3 f fe|
d2 dA Bd|A4 ef|g2 ge cA|1 d3 f fe:|2 d3 d ef||
|:g3 b af|e3 A de|f2 fe dA|B3 B cd|
e2 ef ec|A3 A de|fg fd ec|1 d4 ef:|2 d3 f fe||

